RestoDelMundo/Polonia/Otras Categorias/Lks Lodz Ssa2.svg

<svg xmlns="http://www.w3.org/2000/svg" viewBox="0 0 612 792"><path fill="#ed1c24" d="M243.576 606.328v22.392h192.888v50.832H192.816v-73.224ZM243.576 525.328v9.72h-50.76v-44.352ZM275.04 409.624l-21.168-14.112V334.6l21.168 14.184ZM336.024 244.312v33.552c22.248-2.952 39.168-11.736 51.48-24.912 15.624-16.776 24.984-41.04 29.304-69.624h51.12c-5.112 41.544-18.792 77.832-43.344 104.112a131.5 131.5 0 0 1-16.272 14.76c62.064 32.544 97.488 96.408 99.864 164.808h-50.832c-2.664-70.344-50.328-124.128-121.32-135.864v135.864h-50.688V244.312zM285.336 112.624h50.688v60.408h-50.688Z"/><path fill="#ed1c24" d="M128.736 545.272h210.888c13.896 0 27.432-4.032 36.72-11.808 16.128-13.464 12.672-34.56.936-49.536-8.496-10.872-19.656-18.936-30.96-26.496V396.52l31.464 21.096c14.04 9.432 28.224 20.952 39.384 35.136 28.8 36.936 29.376 88.128-8.352 119.592-18.576 15.552-44.064 23.688-69.192 23.688H104.976zM243.576 289.096v150.048l-50.76-34.632V289.096Z"/><path fill="#ed1c24" d="m146.88 385.648 128.16 87.336v61.344l-128.16-87.48ZM182.592 347.704l-12.96-8.64c-16.488-11.088-28.656-29.52-33.48-48.672-7.992-31.896 2.808-67.536 28.224-88.704 13.536-11.304 30.888-18.36 51.336-18.36h181.944l-23.472 50.76H215.712c-22.896 0-33.12 20.664-33.12 41.256z"/></svg>

<svg enable-background="new 0 0 612 792" viewBox="0 0 612 792" xmlns="http://www.w3.org/2000/svg"><path d="M 243.576 606.328 L 243.576 628.72 L 436.464 628.72 L 436.464 679.552 L 192.816 679.552 L 192.816 606.328 Z" fill="#ed1c24"/><path d="M 243.576 525.328 L 243.576 535.048 L 192.816 535.048 L 192.816 490.696 Z" fill="#ed1c24"/><path d="M 275.04 409.624 L 253.872 395.512 L 253.872 334.6 L 275.04 348.784 Z" fill="#ed1c24"/><path d="M 336.024 244.312 v 33.552 c 22.248 -2.952 39.168 -11.736 51.48 -24.912 c 15.624 -16.776 24.984 -41.04 29.304 -69.624 h 51.12 c -5.112 41.544 -18.792 77.832 -43.344 104.112 c -5.04 5.4 -10.44 10.296 -16.272 14.76 c 62.064 32.544 97.488 96.408 99.864 164.808 h -50.832 c -2.664 -70.344 -50.328 -124.128 -121.32 -135.864 v 135.864 h -50.688 V 244.312 H 336.024 z" fill="#ed1c24"/><path d="M 285.336 112.624 H 336.024 V 173.032 H 285.336 Z" fill="#ed1c24"/><path d="M 128.736 545.272 h 210.888 c 13.896 0 27.432 -4.032 36.72 -11.808 c 16.128 -13.464 12.672 -34.56 .936 -49.536 c -8.496 -10.872 -19.656 -18.936 -30.96 -26.496 V 396.52 l 31.464 21.096 c 14.04 9.432 28.224 20.952 39.384 35.136 c 28.8 36.936 29.376 88.128 -8.352 119.592 c -18.576 15.552 -44.064 23.688 -69.192 23.688 H 104.976 L 128.736 545.272 z" fill="#ed1c24"/><path d="M 243.576 289.096 L 243.576 439.144 L 192.816 404.512 L 192.816 289.096 Z" fill="#ed1c24"/><path d="M 146.88 385.648 L 275.04 472.984 L 275.04 534.328 L 146.88 446.848 Z" fill="#ed1c24"/><path d="M 182.592 347.704 l -12.96 -8.64 c -16.488 -11.088 -28.656 -29.52 -33.48 -48.672 c -7.992 -31.896 2.808 -67.536 28.224 -88.704 c 13.536 -11.304 30.888 -18.36 51.336 -18.36 h 181.944 l -23.472 50.76 H 215.712 c -22.896 0 -33.12 20.664 -33.12 41.256 V 347.704 z" fill="#ed1c24"/></svg>
